Numix-Circle/48x48/apps/crusader-kings.svg

<?xml version="1.0" encoding="UTF-8" standalone="no"?>
<svg
   xmlns:dc="http://purl.org/dc/elements/1.1/"
   xmlns:cc="http://creativecommons.org/ns#"
   xmlns:rdf="http://www.w3.org/1999/02/22-rdf-syntax-ns#"
   xmlns:svg="http://www.w3.org/2000/svg"
   xmlns="http://www.w3.org/2000/svg"
   xmlns:xlink="http://www.w3.org/1999/xlink"
   xmlns:sodipodi="http://sodipodi.sourceforge.net/DTD/sodipodi-0.dtd"
   xmlns:inkscape="http://www.inkscape.org/namespaces/inkscape"
   viewBox="0 0 48 48"
   id="svg2"
   version="1.1"
   inkscape:version="0.91 r13725"
   sodipodi:docname="crusader-kings.svg">
  <metadata
     id="metadata79">
    <rdf:RDF>
      <cc:Work
         rdf:about="">
        <dc:format>image/svg+xml</dc:format>
        <dc:type
           rdf:resource="http://purl.org/dc/dcmitype/StillImage" />
      </cc:Work>
    </rdf:RDF>
  </metadata>
  <sodipodi:namedview
     pagecolor="#ffffff"
     bordercolor="#666666"
     borderopacity="1"
     objecttolerance="10"
     gridtolerance="10"
     guidetolerance="10"
     inkscape:pageopacity="0"
     inkscape:pageshadow="2"
     inkscape:window-width="1262"
     inkscape:window-height="982"
     id="namedview77"
     showgrid="true"
     inkscape:zoom="9.8333333"
     inkscape:cx="20.493042"
     inkscape:cy="14.533785"
     inkscape:window-x="8"
     inkscape:window-y="32"
     inkscape:window-maximized="0"
     inkscape:current-layer="svg2"
     inkscape:snap-smooth-nodes="true"
     inkscape:object-nodes="true">
    <inkscape:grid
       type="xygrid"
       id="grid4266" />
  </sodipodi:namedview>
  <defs
     id="defs4">
    <linearGradient
       inkscape:collect="always"
       id="linearGradient4254">
      <stop
         style="stop-color:#346181;stop-opacity:1;"
         offset="0"
         id="stop4256" />
      <stop
         style="stop-color:#396b8f;stop-opacity:1"
         offset="1"
         id="stop4258" />
    </linearGradient>
    <linearGradient
       id="linearGradient3764"
       x1="1"
       x2="47"
       gradientUnits="userSpaceOnUse"
       gradientTransform="matrix(0,-1,1,0,-1.5e-6,47.999998)">
      <stop
         style="stop-color:#3d505b;stop-opacity:1"
         id="stop7" />
      <stop
         offset="1"
         style="stop-color:#455b68;stop-opacity:1"
         id="stop9" />
    </linearGradient>
    
    <linearGradient
       inkscape:collect="always"
       xlink:href="#linearGradient4254"
       id="linearGradient4260"
       x1="1"
       y1="24"
       x2="47"
       y2="24"
       gradientUnits="userSpaceOnUse" />
    <linearGradient
       inkscape:collect="always"
       xlink:href="#linearGradient4254"
       id="linearGradient4262"
       gradientUnits="userSpaceOnUse"
       x1="1"
       y1="24"
       x2="47"
       y2="24" />
  </defs>
  <g
     id="g21">
    <path
       d="m 36.31 5 c 5.859 4.062 9.688 10.831 9.688 18.5 c 0 12.426 -10.07 22.5 -22.5 22.5 c -7.669 0 -14.438 -3.828 -18.5 -9.688 c 1.037 1.822 2.306 3.499 3.781 4.969 c 4.085 3.712 9.514 5.969 15.469 5.969 c 12.703 0 23 -10.298 23 -23 c 0 -5.954 -2.256 -11.384 -5.969 -15.469 c -1.469 -1.475 -3.147 -2.744 -4.969 -3.781 z m 4.969 3.781 c 3.854 4.113 6.219 9.637 6.219 15.719 c 0 12.703 -10.297 23 -23 23 c -6.081 0 -11.606 -2.364 -15.719 -6.219 c 4.16 4.144 9.883 6.719 16.219 6.719 c 12.703 0 23 -10.298 23 -23 c 0 -6.335 -2.575 -12.06 -6.719 -16.219 z"
       style="opacity:0.05"
       id="path23" />
    <path
       d="m 41.28 8.781 c 3.712 4.085 5.969 9.514 5.969 15.469 c 0 12.703 -10.297 23 -23 23 c -5.954 0 -11.384 -2.256 -15.469 -5.969 c 4.113 3.854 9.637 6.219 15.719 6.219 c 12.703 0 23 -10.298 23 -23 c 0 -6.081 -2.364 -11.606 -6.219 -15.719 z"
       style="opacity:0.1"
       id="path25" />
    <path
       d="m 31.25 2.375 c 8.615 3.154 14.75 11.417 14.75 21.13 c 0 12.426 -10.07 22.5 -22.5 22.5 c -9.708 0 -17.971 -6.135 -21.12 -14.75 a 23 23 0 0 0 44.875 -7 a 23 23 0 0 0 -16 -21.875 z"
       style="opacity:0.2"
       id="path27" />
  </g>
  <g
     id="g29"
     style="fill:url(#linearGradient4260);fill-opacity:1"
     transform="matrix(0,-1,1,0,0,48)">
    <path
       d="M 24,1 C 36.703,1 47,11.297 47,24 47,36.703 36.703,47 24,47 11.297,47 1,36.703 1,24 1,11.297 11.297,1 24,1 Z"
       style="fill:url(#linearGradient4262);fill-opacity:1"
       id="path31"
       inkscape:connector-curvature="0" />
  </g>
  <g
     id="g33"
     transform="translate(0,1)">
    <g
       id="g35"
       clip-path="url(#clipPath-700949347)">
      <g
         transform="translate(1,1)"
         id="g37">
        <g
           style="opacity:0.1"
           id="g39">
          <!-- color: #455b68 -->
          <g
             id="g41">
            <path
               d="M 24,11 C 20,12.172 16,13.348 12,14.523 12.293,23.246 14.531,33.886 24,37 33.57,33.98 35.594,23.152 36,14.523 32,13.347 28,12.171 24,11 m 0,0"
               style="fill:#000000;fill-opacity:1;fill-rule:evenodd;stroke:none"
               id="path43"
               inkscape:connector-curvature="0" />
          </g>
        </g>
      </g>
    </g>
  </g>
  <g
     id="g73">
    <path
       d="m 40.03 7.531 c 3.712 4.084 5.969 9.514 5.969 15.469 0 12.703 -10.297 23 -23 23 c -5.954 0 -11.384 -2.256 -15.469 -5.969 4.178 4.291 10.01 6.969 16.469 6.969 c 12.703 0 23 -10.298 23 -23 0 -6.462 -2.677 -12.291 -6.969 -16.469 z"
       style="opacity:0.1"
       id="path75" />
  </g>
  <path
     d="M 24,14 C 20.615385,14.991691 17.230769,15.986769 13.846154,16.980999 14.094076,24.362 15.987769,33.365077 24,36 32.097693,33.444616 33.810308,24.282461 34.153846,16.980999 30.769231,15.985923 27.384615,14.990845 24,14 m 0,0"
     style="fill:#e6e6e6;fill-opacity:1;fill-rule:evenodd;stroke:none"
     id="path4264"
     inkscape:connector-curvature="0" />
  <path
     inkscape:connector-curvature="0"
     id="path4325"
     style="fill:#e6e6e6;fill-opacity:1;fill-rule:evenodd;stroke:none"
     d="M 24,13 C 20.307693,14.081845 16.615384,15.167384 12.923077,16.251999 13.193537,24.304 15.259384,34.125539 24,37 32.833847,34.212308 34.702154,24.21723 35.076923,16.251999 31.384616,15.166461 27.692307,14.080922 24,13 m 0,0" />
  <path
     style="opacity:1;fill:#e04a4a;fill-opacity:1;fill-rule:nonzero;stroke:none;stroke-width:2.5;stroke-linejoin:round;stroke-miterlimit:4;stroke-dasharray:none;stroke-opacity:1"
     d="M 24 13 L 21 14 L 23 17 L 23 21 L 17 21 L 13 19 L 13 22 L 14 25 L 17 23 L 23 23 L 23 33 L 21 36 L 24 37 L 27 36 L 25 33 L 25 23 L 31 23 L 34 25 L 35 22 L 35 19 L 31 21 L 25 21 L 25 17 L 27 14 L 24 13 z "
     id="rect4268" />
  <path
     style="fill:#d3b06b;fill-opacity:1;fill-rule:evenodd;stroke:none"
     d="M 24 12 C 20 13.172 16 14.348437 12 15.523438 C 12.293 24.246437 14.531 34.886 24 38 C 33.57 34.98 35.594 24.152438 36 15.523438 C 32 14.347437 28 13.171 24 12 z M 24 14 C 27.384615 14.990845 30.769682 15.985393 34.154297 16.980469 C 33.810759 24.281931 32.097693 33.444616 24 36 C 15.987769 33.365077 14.093625 24.36147 13.845703 16.980469 C 17.230318 15.986239 20.615385 14.991691 24 14 z "
     id="path51" />
</svg>

<svg xmlns="http://www.w3.org/2000/svg" viewBox="0 0 48 48">
 <defs>
  <linearGradient id="linearGradient4260" x1="1" x2="47" gradientUnits="userSpaceOnUse">
   <stop style="stop-color:#346181;stop-opacity:1"/>
   <stop offset="1" style="stop-color:#396b8f;stop-opacity:1"/>
  </linearGradient>
 </defs>
 <g>
  <path d="m 36.31 5 c 5.859 4.062 9.688 10.831 9.688 18.5 c 0 12.426 -10.07 22.5 -22.5 22.5 c -7.669 0 -14.438 -3.828 -18.5 -9.688 c 1.037 1.822 2.306 3.499 3.781 4.969 c 4.085 3.712 9.514 5.969 15.469 5.969 c 12.703 0 23 -10.298 23 -23 c 0 -5.954 -2.256 -11.384 -5.969 -15.469 c -1.469 -1.475 -3.147 -2.744 -4.969 -3.781 z m 4.969 3.781 c 3.854 4.113 6.219 9.637 6.219 15.719 c 0 12.703 -10.297 23 -23 23 c -6.081 0 -11.606 -2.364 -15.719 -6.219 c 4.16 4.144 9.883 6.719 16.219 6.719 c 12.703 0 23 -10.298 23 -23 c 0 -6.335 -2.575 -12.06 -6.719 -16.219 z" style="opacity:0.05"/>
  <path d="m 41.28 8.781 c 3.712 4.085 5.969 9.514 5.969 15.469 c 0 12.703 -10.297 23 -23 23 c -5.954 0 -11.384 -2.256 -15.469 -5.969 c 4.113 3.854 9.637 6.219 15.719 6.219 c 12.703 0 23 -10.298 23 -23 c 0 -6.081 -2.364 -11.606 -6.219 -15.719 z" style="opacity:0.1"/>
  <path d="m 31.25 2.375 c 8.615 3.154 14.75 11.417 14.75 21.13 c 0 12.426 -10.07 22.5 -22.5 22.5 c -9.708 0 -17.971 -6.135 -21.12 -14.75 a 23 23 0 0 0 44.875 -7 a 23 23 0 0 0 -16 -21.875 z" style="opacity:0.2"/>
 </g>
 <g transform="matrix(0,-1,1,0,0,48)" style="fill:url(#linearGradient4260);fill-opacity:1">
  <path d="M 24,1 C 36.703,1 47,11.297 47,24 47,36.703 36.703,47 24,47 11.297,47 1,36.703 1,24 1,11.297 11.297,1 24,1 Z"/>
 </g>
 <g transform="translate(0,1)">
  <g>
   <g transform="translate(1,1)">
    <g style="opacity:0.1">
     <!-- color: #455b68 -->
     <g>
      <path d="M 24,11 C 20,12.172 16,13.348 12,14.523 12.293,23.246 14.531,33.886 24,37 33.57,33.98 35.594,23.152 36,14.523 32,13.347 28,12.171 24,11 m 0,0" style="fill:#000;fill-opacity:1;stroke:none;fill-rule:evenodd"/>
     </g>
    </g>
   </g>
  </g>
 </g>
 <g>
  <path d="m 40.03 7.531 c 3.712 4.084 5.969 9.514 5.969 15.469 0 12.703 -10.297 23 -23 23 c -5.954 0 -11.384 -2.256 -15.469 -5.969 4.178 4.291 10.01 6.969 16.469 6.969 c 12.703 0 23 -10.298 23 -23 0 -6.462 -2.677 -12.291 -6.969 -16.469 z" style="opacity:0.1"/>
 </g>
 <path d="m 24 14 c -3.385 0.992 -6.769 1.987 -10.154 2.981 0.248 7.381 2.142 16.384 10.154 19.02 8.098 -2.555 9.81 -11.718 10.154 -19.02 -3.385 -0.995 -6.769 -1.99 -10.154 -2.981 m 0 0" style="fill:#e6e6e6;fill-opacity:1;stroke:none;fill-rule:evenodd"/>
 <path d="m 24 13 c -3.692 1.082 -7.385 2.167 -11.08 3.252 0.27 8.05 2.336 17.874 11.08 20.748 8.834 -2.788 10.702 -12.783 11.08 -20.748 -3.692 -1.086 -7.385 -2.171 -11.08 -3.252 m 0 0" style="fill:#e6e6e6;fill-opacity:1;stroke:none;fill-rule:evenodd"/>
 <path d="m 24 13 l -3 1 l 2 3 l 0 4 l -6 0 l -4 -2 l 0 3 l 1 3 l 3 -2 l 6 0 l 0 10 l -2 3 l 3 1 l 3 -1 l -2 -3 l 0 -10 l 6 0 l 3 2 l 1 -3 l 0 -3 l -4 2 l -6 0 l 0 -4 l 2 -3 l -3 -1 z" style="fill:#e04a4a;opacity:1;fill-opacity:1;stroke:none;fill-rule:nonzero"/>
 <path d="m 24 12 c -4 1.172 -8 2.348 -12 3.523 c 0.293 8.723 2.531 19.363 12 22.477 c 9.57 -3.02 11.594 -13.848 12 -22.477 c -4 -1.176 -8 -2.352 -12 -3.523 z m 0 2 c 3.385 0.991 6.77 1.985 10.154 2.98 c -0.344 7.301 -2.057 16.464 -10.154 19.02 c -8.01 -2.635 -9.906 -11.639 -10.154 -19.02 c 3.385 -0.994 6.77 -1.989 10.154 -2.98 z" style="fill:#d3b06b;fill-opacity:1;stroke:none;fill-rule:evenodd"/>
</svg>
